icons/svg/dollar.svg

<svg width="24" height="24" viewBox="0 0 24 24" fill="none" xmlns="http://www.w3.org/2000/svg">
<path d="M16.4413 8.26025C16.4413 8.26025 15.8841 5.62112 12 5.33385M7.62413 15.8544C7.62413 15.8544 8.7502 18.5179 12 18.6834M12 2.75V5.33385M12 21.25V18.6834M12 5.33385C11.7764 5.31732 11.5418 5.30857 11.2957 5.30857C9.60757 5.30857 7.41499 6.7139 7.41499 8.67634C7.41499 10.6388 9.00383 11.4081 11.803 11.8854C14.6023 12.3627 16.585 13.4174 16.585 15.5816C16.585 17.7457 14.2654 18.6914 12.3191 18.6914C12.2105 18.6914 12.1042 18.6887 12 18.6834" stroke="currentColor" stroke-width="1.5" stroke-linecap="round"/>
</svg>

<svg xmlns="http://www.w3.org/2000/svg" width="24" height="24" fill="none" viewBox="0 0 24 24"><path stroke="currentColor" stroke-linecap="round" stroke-width="1.5" d="M16.441 8.26S15.884 5.621 12 5.334m-4.376 10.52S8.75 18.518 12 18.684M12 2.75v2.584m0 15.916v-2.567m0-13.35a10 10 0 0 0-.704-.024c-1.688 0-3.881 1.405-3.881 3.367 0 1.963 1.589 2.732 4.388 3.21s4.782 1.531 4.782 3.696-2.32 3.11-4.266 3.11a6 6 0 0 1-.319-.009"/></svg>
